public/img/logos/imgur.svg

<?xml version="1.0" encoding="UTF-8" standalone="no"?><svg width="91px" height="33px" viewBox="0 0 91 33" version="1.1" xmlns="http://www.w3.org/2000/svg" xmlns:xlink="http://www.w3.org/1999/xlink"><title>Imgur Logo</title><defs><polyline id="path-1" points="0 0.236615183 90.6289937 0.236615183 90.6289937 32.5381555 0 32.5381555"></polyline></defs><g id="Page-1" stroke="none" stroke-width="1" fill="none" fill-rule="evenodd"><g id="Ad-UX-Copy-3" transform="translate(-163.000000, -11.000000)"><g id="Header"><g id="Imgur-Logo" transform="translate(163.000000, 10.615385)"><g id="Group-3"><mask id="mask-2" fill="white"><use xlink:href="#path-1"></use></mask><g id="Clip-2"></g><path d="M85.8886355,14.1367725 C84.3537152,14.7872502 84.1793842,15.3757912 84.1793842,17.0489374 L84.1793842,22.129171 C84.1793842,24.5147315 83.3071523,25.692099 81.4238588,25.692099 C79.5402766,25.692099 78.6683333,24.5147315 78.6683333,22.129171 L78.6683333,12.3092128 C78.6683333,9.9236522 79.5402766,8.77711035 81.4238588,8.77711035 C82.5050569,8.77711035 83.3770002,9.27260367 84.0396886,10.3260978 C85.1907345,9.24234889 86.4814761,8.68463349 87.7722177,8.68463349 C89.3068494,8.68463349 90.5626671,9.79949345 90.5626671,11.1004488 C90.5626671,13.0524527 88.1208796,13.2071517 85.8886355,14.1367725 M67.541171,25.9709567 C62.2047395,25.9709567 59.2399592,23.4923485 59.2399592,18.8148459 L59.2399592,12.3092128 C59.2399592,9.9236522 60.1119025,8.77711035 61.9954847,8.77711035 C63.844143,8.77711035 64.7157977,9.9236522 64.7157977,12.3092128 L64.7157977,17.8232884 C64.7157977,20.1158013 65.3092155,21.385931 67.541171,21.385931 C69.7737037,21.385931 70.3665443,20.1158013 70.3665443,17.8232884 L70.3665443,12.3092128 C70.3665443,9.9236522 71.2387762,8.77711035 73.1220698,8.77711035 C75.0059406,8.77711035 75.84296,9.9236522 75.84296,12.3092128 L75.84296,18.8148459 C75.84296,23.4923485 72.8781796,25.9709567 67.541171,25.9709567 M47.5903814,13.2382627 C45.5671035,13.2382627 43.9972593,14.7872502 43.9972593,17.2347474 C43.9972593,19.7438959 45.5324682,21.3239944 47.5903814,21.3239944 C49.6480059,21.3239944 51.2172729,19.7127848 51.2172729,17.2347474 C51.2172729,14.7872502 49.613082,13.2382627 47.5903814,13.2382627 M55.1590569,28.8825508 C53.5548659,31.2681113 50.6942801,32.5382411 46.7877087,32.5382411 C41.7647266,32.5382411 38.730387,30.8967768 38.730387,28.9755985 C38.730387,27.7365798 39.7417373,26.83807 41.1020381,26.83807 C42.4623389,26.83807 44.102031,28.1393108 46.9969635,28.1393108 C49.6829298,28.1393108 51.2871207,26.6833711 51.2871207,24.0192382 C51.2871207,23.8334282 51.2521968,23.6470474 51.2521968,23.4304118 C50.0668042,24.9482882 48.4268235,25.7229246 46.2647159,25.7229246 C41.9393461,25.7229246 38.3118774,22.1913931 38.3118774,17.2347474 C38.3118774,12.2781017 42.1835249,8.59130036 46.8575565,8.59130036 C48.7408501,8.59130036 50.136652,9.14901576 51.2521968,10.3260978 C51.8805386,9.30371471 52.8572536,8.77711035 53.6939843,8.77711035 C55.5775665,8.77711035 56.4495098,9.9236522 56.4495098,12.3092128 L56.4495098,22.129171 C56.4495098,25.0724469 56.240255,27.3027377 55.1590569,28.8825508 M33.3584545,25.692099 C31.4754495,25.692099 30.6381415,24.5147315 30.6381415,22.129171 L30.6381415,16.6150953 C30.6381415,14.1367725 29.9056053,12.8977538 28.1265062,12.8977538 C26.1384408,12.8977538 25.3712693,14.1367725 25.3712693,16.5534441 L25.3712693,22.129171 C25.3712693,24.5147315 24.499326,25.692099 22.6157438,25.692099 C20.731873,25.692099 19.8602183,24.5147315 19.8602183,22.129171 L19.8602183,16.6150953 C19.8602183,14.1367725 19.162606,12.8977538 17.3835069,12.8977538 C15.3957302,12.8977538 14.6279814,14.1367725 14.6279814,16.5534441 L14.6279814,22.129171 C14.6279814,24.5147315 13.7557495,25.692099 11.8727445,25.692099 C9.98887369,25.692099 9.11721904,24.5147315 9.11721904,22.129171 L9.11721904,12.3092128 C9.11721904,9.9236522 9.98887369,8.77711035 11.8727445,8.77711035 C12.9539426,8.77711035 13.8255973,9.27260367 14.4882857,10.3260978 C15.6396203,9.21123785 17.034845,8.71545911 18.8835033,8.71545911 C21.2551544,8.71545911 23.0691774,9.49009555 24.3596304,11.007972 C26.0336691,9.3659368 27.6387259,8.71545911 29.9056053,8.71545911 C33.707405,8.71545911 36.1139799,10.9149243 36.1139799,15.1280445 L36.1139799,22.129171 C36.1139799,24.5147315 35.2423253,25.692099 33.3584545,25.692099 M3.32677677,8.77711035 C5.17543507,8.77711035 6.04708972,9.9236522 6.04708972,12.3092128 L6.04708972,22.129171 C6.04708972,24.5147315 5.21064761,25.692099 3.32677677,25.692099 C1.4434832,25.692099 0.571251288,24.5147315 0.571251288,22.129171 L0.571251288,12.3092128 C0.571251288,9.9236522 1.4434832,8.77711035 3.32677677,8.77711035 M3.32677677,6.90531015 C1.54767768,6.90531015 0.152452976,5.66629144 0.152452976,4.08619294 C0.152452976,2.53720549 1.58260159,1.26736116 3.32677677,1.26736116 C5.07066333,1.26736116 6.46588803,2.53720549 6.46588803,4.08619294 C6.46588803,5.66629144 5.07066333,6.90531015 3.32677677,6.90531015" id="Fill-1" fill="#F2F2F2" mask="url(#mask-2)"></path></g><path d="M3.32669019,6.90519598 C1.54759109,6.90519598 0.152366388,5.66617727 0.152366388,4.08636419 C0.152366388,2.53737674 1.58280363,1.26724699 3.32669019,1.26724699 C5.07057675,1.26724699 6.46580145,2.53737674 6.46580145,4.08636419 C6.46580145,5.66617727 5.07057675,6.90519598 3.32669019,6.90519598" id="Fill-4" fill="#1bb76e"></path></g></g></g></g></svg>

<svg width="91" height="33" xmlns="http://www.w3.org/2000/svg" xmlns:xlink="http://www.w3.org/1999/xlink">
  <defs>
    <path id="a" d="M0 .237h90.629v32.301H0"/>
  </defs>
  <g fill="none" fill-rule="evenodd">
    <g transform="translate(0 -.385)">
      <mask id="b" fill="#fff">
        <use xlink:href="#a"/>
      </mask>
      <path d="M85.889 14.137c-1.535.65-1.71 1.239-1.71 2.912v5.08c0 2.386-.872 3.563-2.755 3.563-1.884 0-2.756-1.177-2.756-3.563v-9.82c0-2.385.872-3.532 2.756-3.532 1.081 0 1.953.496 2.616 1.55 1.15-1.085 2.441-1.642 3.732-1.642 1.535 0 2.79 1.114 2.79 2.415 0 1.952-2.441 2.107-4.673 3.037M67.54 25.97c-5.336 0-8.301-2.479-8.301-7.156v-6.506c0-2.385.872-3.532 2.755-3.532 1.85 0 2.72 1.147 2.72 3.532v5.514c0 2.293.594 3.563 2.826 3.563 2.233 0 2.826-1.27 2.826-3.563V12.31c0-2.385.872-3.532 2.755-3.532 1.884 0 2.721 1.147 2.721 3.532v6.506c0 4.677-2.965 7.156-8.302 7.156m-19.95-12.733c-2.024 0-3.594 1.55-3.594 3.997 0 2.509 1.535 4.089 3.593 4.089s3.627-1.611 3.627-4.09c0-2.447-1.604-3.996-3.627-3.996m7.57 15.645c-1.605 2.385-4.466 3.655-8.372 3.655-5.023 0-8.058-1.641-8.058-3.562 0-1.24 1.012-2.138 2.372-2.138 1.36 0 3 1.301 5.895 1.301 2.686 0 4.29-1.456 4.29-4.12 0-.186-.035-.372-.035-.589-1.185 1.518-2.825 2.293-4.987 2.293-4.326 0-7.953-3.532-7.953-8.488 0-4.957 3.872-8.644 8.546-8.644 1.883 0 3.279.558 4.394 1.735.629-1.022 1.605-1.549 2.442-1.549 1.884 0 2.756 1.147 2.756 3.532v9.82c0 2.943-.21 5.174-1.29 6.754m-21.802-3.19c-1.883 0-2.72-1.178-2.72-3.564v-5.514c0-2.478-.732-3.717-2.511-3.717-1.989 0-2.756 1.239-2.756 3.655v5.576c0 2.386-.872 3.563-2.755 3.563-1.884 0-2.756-1.177-2.756-3.563v-5.514c0-2.478-.697-3.717-2.476-3.717-1.988 0-2.756 1.239-2.756 3.655v5.576c0 2.386-.872 3.563-2.755 3.563-1.884 0-2.756-1.177-2.756-3.563v-9.82c0-2.385.872-3.532 2.756-3.532 1.08 0 1.953.496 2.615 1.55 1.152-1.116 2.547-1.612 4.396-1.612 2.371 0 4.185.775 5.476 2.293 1.674-1.642 3.279-2.293 5.546-2.293 3.801 0 6.208 2.2 6.208 6.413v7.001c0 2.386-.872 3.563-2.756 3.563M3.327 8.777c1.848 0 2.72 1.147 2.72 3.532v9.82c0 2.386-.836 3.563-2.72 3.563-1.884 0-2.756-1.177-2.756-3.563v-9.82c0-2.385.872-3.532 2.756-3.532m0-1.872c-1.78 0-3.175-1.239-3.175-2.819 0-1.549 1.43-2.819 3.175-2.819 1.744 0 3.139 1.27 3.139 2.82 0 1.58-1.395 2.818-3.14 2.818" fill="#F2F2F2" mask="url(#b)"/>
    </g>
    <path d="M3.327 6.52C1.547 6.52.152 5.283.152 3.703c0-1.55 1.43-2.82 3.175-2.82 1.744 0 3.139 1.27 3.139 2.82 0 1.58-1.395 2.819-3.14 2.819" fill="#1bb76e"/>
  </g>
</svg>
